X: 11261
Q: "Andantino"
M: 2/4
L: 1/16
K: G
[|\
"p126s1"G4 B2 d2 | (d2 c4) A2 | B4 (G2c2) | (B4 {cB}A2) zD |\
"p126s2" G4 G4 | {F}E6 c2 | B4 TA4 | G4 z2G2 |
"p126s3" G4 B2 d2 | {d}^c6 e2 | (e2^c2A2) G2 | {G}F4 z2A2 |\
"p126s4" A4 d2 d2 | B6 e2 | d4 ^c4 | d4 z2d2 |
(d2c2) (A2F2) | G4 z2B2 | "p126s5" (d2c2) (A2F2) | G4 z2B2 |\
 c6 e2 | d6 G2 | "p127s1" F4 (G3A/B/) | A4 z4 |
 D4 (B3G) | E4 (c3A) | d4 (B2G2) | "p127s3" THB4 HA2 zA |
 d4 (B2G2) | E4 (D2c2) | B4 TA4 | "p127s4" G4 z2G2 |\
 G4 (B2d2) | (d2 c4) A2 | B4 (G2c2) | "p127s5" (B4 {cB}A2) zD |
 G4 G4 | {F}E6 c2 | B4 TA4 | G4 z2G2 |\
"p128s1" G4 (B2d2) | {d}^c6 e2 | (e2^c2A2) G2 | {G}F4 z2A2 |
(d2c2) (A2F2) | G4 z2B2 | "p128s3" (d2c2) (A2F2) | G4 z2B2 |
c6 e2 | {e}d6 G2 | F4 (G3A/B/) | "p128s4" {B}A4 z2D2 |\
"p128s5" D4 (B3G) | E4 (c3A) | d4 (B2G2) | HB4 HA2 zA |\
d4 (B2G2) | "p128s_" E4 (D2c2) | B4 TA4 | G4 z2B2 |
c2d2e2f2 | (gfgd) {f/}e2dc | B4 {B/}A2GA | G4 z4 |]




